X:218
T:The Head Road Reel
R:reel
C:Bruce Osborne - Mar. 2002
Z:abc by bosborne@kos.net
M:2/4
L:1/8
K:Dmaj
F/G/|A/F/D/E/ F/A/d/e/|f/a/f/d/ Ae/f/|g/e/c/A/ E/A/c/e/|d/c/d/B/ AF/G/|\
A/F/D/E/ F/A/d/e/|f/a/f/d/ Ae/f/|g/e/c/A/ E/A/c/e/|(3d/c/d/ f/e/ d:|
|:F/G/|A/d/c/d/ B/d/A/F/|D/F/A/c/ dc/d/|e/A/A/A/ e/A/f/A/|g/A/f/A/ eF/G/|\
A/d/c/d/ B/d/A/F/|D/F/A/c/ dc/d/|e/A/A/A/ e/A/f/A/|(3g/f/e/ c/A/ d:|
